X:1
T: Cabin down the Lane
C:
R:Reel
Q: 232
K:G
M:4/4
L:1/8
|:Bc|d2ed dB GA|BG EG D3B|c2 cd ed cB|A2A2 A2Bc|
d2ed dB GA|BG EG D3B|Bd BG Ec AF|G2G2 G2AB|
cB cd c2Bc|dB BG A2Bc|d2BG ed cB|A2A2 A2Bc|
dD ec dB GA|BG DG D2 GA|Bd BG Ac AF|G2G2 G2:|
